src/lib/packages/icons/src/assets/line/scan-circle.svg

<svg width="24" height="24" viewBox="0 0 24 24" fill="none" xmlns="http://www.w3.org/2000/svg">
<path d="M22.75 12C22.75 17.928 17.928 22.75 12 22.75C6.072 22.75 1.25 17.928 1.25 12C1.25 11.213 1.33796 10.4119 1.51196 9.61792C1.59996 9.21292 2.00503 8.95892 2.40503 9.04492C2.80903 9.13292 3.06605 9.53299 2.97705 9.93799C2.82705 10.627 2.75 11.321 2.75 12C2.75 17.101 6.899 21.25 12 21.25C17.101 21.25 21.25 17.101 21.25 12C21.25 6.899 17.101 2.75 12 2.75C9.776 2.75 7.67792 3.52688 6.01392 4.95288L12.531 11.47C12.824 11.763 12.824 12.238 12.531 12.531C12.238 12.824 11.763 12.824 11.47 12.531L4.40405 5.46411C4.11205 5.17211 4.1111 4.69803 4.4021 4.40503C6.4231 2.37103 9.12298 1.25098 12.001 1.25098C17.928 1.24998 22.75 6.072 22.75 12Z" fill="currentColor"/>
</svg>

<svg xmlns="http://www.w3.org/2000/svg" width="24" height="24" fill="none"><path fill="currentColor" d="M22.75 12c0 5.928-4.822 10.75-10.75 10.75S1.25 17.928 1.25 12c0-.787.088-1.588.262-2.382a.75.75 0 1 1 1.465.32A9.72 9.72 0 0 0 2.75 12c0 5.101 4.149 9.25 9.25 9.25s9.25-4.149 9.25-9.25S17.101 2.75 12 2.75a9.141 9.141 0 0 0-5.986 2.203l6.517 6.517a.75.75 0 1 1-1.061 1.061L4.404 5.464a.75.75 0 0 1-.002-1.059 10.637 10.637 0 0 1 7.599-3.154C17.928 1.25 22.75 6.072 22.75 12Z"/></svg>
